!!! OTL: Berkowitz213
!!! Chapter: 1
!!! Section: II
!!! Page: 50
!!! Mode: 
!!! Encoder: DJB
**kern
*staff1
*I"Piano
=1-
*clefF4
*k[f#c#g#d#]
*c#:
*M4/4
4r
4r
4r
8G#\L
8F#\J
=2
4E\
8D#/L
8C#/J
4D#\
4BB#/
=3
[2C#/
8C#\L]
8D#\
8E\
8F#\J
=4
4G#\
8F#\L
8G#\J
4A\
4c#\
=5
2B#\
4r
4c#\
=6
4D#\
8E\L
8F#\J
4G#\
4A\
=7
4BB#/
8C#/L
8D#/J
8E\L
8D#\
8E\
8F#\J
=8
!!linebreak:original
[2G#\
8G#\L]
8F#\
8D#\
8G#\J
=9
2C#/
2r
==
*-
